workspaces/client/public/images/svg/services-wallet-transfer.svg

<svg width="40" height="40" viewBox="0 0 40 40" fill="none" xmlns="http://www.w3.org/2000/svg">
<path d="M8.33341 25C6.63341 25 5.06675 25.65 3.88341 26.7167C3.61675 26.95 3.36675 27.2 3.15008 27.4833C2.21675 28.6333 1.66675 30.0833 1.66675 31.6667C1.66675 35.35 4.66675 38.3333 8.33341 38.3333C9.93341 38.3333 11.3834 37.7667 12.5334 36.85C13.4667 36.0667 14.2001 35.05 14.6001 33.8833C14.8667 33.2 15.0001 32.45 15.0001 31.6667C15.0001 28 12.0167 25 8.33341 25ZM12.3334 30.3833C12.3334 30.85 11.9667 31.2 11.5167 31.2C11.0667 31.2 10.7001 30.85 10.7001 30.3833V30.2167C10.7001 30.0333 10.5667 29.8833 10.3834 29.8833H7.05008C7.21675 30.2 7.18341 30.5833 6.91675 30.85C6.76675 31 6.56675 31.0833 6.33341 31.0833C6.13341 31.0833 5.91675 31 5.76675 30.85L4.56675 29.65C4.50008 29.5833 4.43341 29.4833 4.38341 29.3833C4.31675 29.1833 4.31675 28.9667 4.38341 28.7667C4.43341 28.6833 4.48341 28.5667 4.56675 28.5L5.76675 27.3167C6.08341 26.9833 6.60008 26.9833 6.90008 27.3167C7.16675 27.5667 7.20008 27.9667 7.03341 28.2667H10.3834C11.4501 28.2667 12.3167 29.1333 12.3167 30.2167V30.3833H12.3334ZM10.3334 36.2667C10.1167 36.2667 9.90008 36.2 9.75008 36.0333C9.48341 35.7833 9.45008 35.3833 9.61675 35.0833H6.26675C5.20008 35.0833 4.33341 34.2167 4.33341 33.1333V32.9667C4.33341 32.5 4.70008 32.15 5.15008 32.15C5.60008 32.15 5.96675 32.5 5.96675 32.9667V33.1333C5.96675 33.3167 6.10008 33.4667 6.28341 33.4667H9.63341C9.46675 33.15 9.50008 32.7667 9.76675 32.5C10.0834 32.1833 10.6001 32.1833 10.9001 32.5L12.1001 33.7C12.1667 33.7667 12.2334 33.8667 12.2834 33.9667C12.3501 34.1667 12.3501 34.3833 12.2834 34.5833C12.2334 34.6667 12.1667 34.7667 12.1001 34.8333L10.9001 36.0167C10.7501 36.1833 10.5334 36.2667 10.3334 36.2667Z" fill="white"/>
<path d="M24.7501 6.58341V12.9167H22.2501V6.58341C22.2501 6.13341 21.8501 5.91675 21.5834 5.91675C21.5001 5.91675 21.4167 5.93341 21.3334 5.96675L8.11675 10.9501C7.23341 11.2834 6.66675 12.1167 6.66675 13.0667V14.1834C5.15008 15.3167 4.16675 17.1334 4.16675 19.1834V13.0667C4.16675 11.0834 5.38341 9.31675 7.23341 8.61675L20.4667 3.61675C20.8334 3.48341 21.2167 3.41675 21.5834 3.41675C23.2501 3.41675 24.7501 4.76675 24.7501 6.58341Z" fill="white"/>
<path d="M35.8333 24.1666V25.8333C35.8333 26.2833 35.4833 26.6499 35.0166 26.6666H32.5833C31.7 26.6666 30.9 26.0166 30.8333 25.1499C30.7833 24.6333 30.9833 24.1499 31.3166 23.8166C31.6166 23.4999 32.0333 23.3333 32.4833 23.3333H35C35.4833 23.3499 35.8333 23.7166 35.8333 24.1666Z" fill="white"/>
<path d="M32.4667 21.5834H34.1667C35.0834 21.5834 35.8334 20.8334 35.8334 19.9167V19.1834C35.8334 15.7334 33.0167 12.9167 29.5667 12.9167H10.4334C9.01675 12.9167 7.71675 13.3834 6.66675 14.1834C5.15008 15.3167 4.16675 17.1334 4.16675 19.1834V22.1501C4.16675 22.7834 4.83341 23.1834 5.43341 22.9834C6.36675 22.6667 7.35008 22.5001 8.33341 22.5001C13.3834 22.5001 17.5001 26.6167 17.5001 31.6667C17.5001 32.8667 17.1834 34.1834 16.6834 35.3501C16.4167 35.9501 16.8334 36.6667 17.4834 36.6667H29.5667C33.0167 36.6667 35.8334 33.8501 35.8334 30.4001V30.0834C35.8334 29.1667 35.0834 28.4167 34.1667 28.4167H32.7167C31.1167 28.4167 29.5834 27.4334 29.1667 25.8834C28.8334 24.6167 29.2334 23.3834 30.0667 22.5834C30.6834 21.9501 31.5334 21.5834 32.4667 21.5834ZM23.3334 21.2501H15.0001C14.3167 21.2501 13.7501 20.6834 13.7501 20.0001C13.7501 19.3167 14.3167 18.7501 15.0001 18.7501H23.3334C24.0167 18.7501 24.5834 19.3167 24.5834 20.0001C24.5834 20.6834 24.0167 21.2501 23.3334 21.2501Z" fill="white"/>
</svg>

<svg xmlns="http://www.w3.org/2000/svg" width="40" height="40" fill="none"><path fill="#fff" d="M8.333 25c-1.7 0-3.266.65-4.45 1.717a5.3 5.3 0 0 0-.733.766 6.6 6.6 0 0 0-1.483 4.184c0 3.683 3 6.666 6.666 6.666 1.6 0 3.05-.566 4.2-1.483.934-.783 1.667-1.8 2.067-2.967.267-.683.4-1.433.4-2.216C15 28 12.017 25 8.333 25m4 5.383a.81.81 0 0 1-.816.817.807.807 0 0 1-.817-.817v-.166c0-.184-.133-.334-.317-.334H7.05a.81.81 0 0 1-.133.967.8.8 0 0 1-.584.233.82.82 0 0 1-.566-.233l-1.2-1.2a1 1 0 0 1-.184-.267.98.98 0 0 1 0-.616c.05-.084.1-.2.184-.267l1.2-1.183a.767.767 0 0 1 1.133 0c.267.25.3.65.133.95h3.35c1.067 0 1.934.866 1.934 1.95v.166zm-2 5.884c-.216 0-.433-.067-.583-.234a.785.785 0 0 1-.133-.95h-3.35a1.94 1.94 0 0 1-1.934-1.95v-.166c0-.467.367-.817.817-.817s.817.35.817.817v.166c0 .184.133.334.316.334h3.35a.81.81 0 0 1 .134-.967.795.795 0 0 1 1.133 0l1.2 1.2c.067.067.133.167.183.267.067.2.067.416 0 .616-.05.084-.116.184-.183.25l-1.2 1.184a.77.77 0 0 1-.567.25M24.75 6.583v6.334h-2.5V6.583c0-.45-.4-.666-.667-.666a.7.7 0 0 0-.25.05L8.117 10.95a2.24 2.24 0 0 0-1.45 2.117v1.116a6.23 6.23 0 0 0-2.5 5v-6.116a4.75 4.75 0 0 1 3.066-4.45l13.234-5c.366-.134.75-.2 1.116-.2 1.667 0 3.167 1.35 3.167 3.166M35.833 24.167v1.666c0 .45-.35.817-.816.834h-2.434c-.883 0-1.683-.65-1.75-1.517-.05-.517.15-1 .484-1.333.3-.317.716-.484 1.166-.484H35c.483.017.833.384.833.834"/><path fill="#fff" d="M32.467 21.583h1.7c.916 0 1.666-.75 1.666-1.666v-.734c0-3.45-2.816-6.266-6.266-6.266H10.433a6.18 6.18 0 0 0-3.766 1.266 6.23 6.23 0 0 0-2.5 5v2.967c0 .633.666 1.033 1.266.833a9 9 0 0 1 2.9-.483c5.05 0 9.167 4.117 9.167 9.167 0 1.2-.317 2.516-.817 3.683-.266.6.15 1.317.8 1.317h12.084c3.45 0 6.266-2.817 6.266-6.267v-.317c0-.916-.75-1.666-1.666-1.666h-1.45c-1.6 0-3.134-.984-3.55-2.534-.334-1.266.066-2.5.9-3.3.616-.633 1.466-1 2.4-1m-9.134-.333H15A1.26 1.26 0 0 1 13.75 20c0-.683.567-1.25 1.25-1.25h8.333c.684 0 1.25.567 1.25 1.25a1.26 1.26 0 0 1-1.25 1.25"/></svg>
